X: 10462
T: Donegal, The
R: reel
M: 4/4
K: Dmajor
|D2 DE FDFA|dFAF BFAF|E3F GFGA|(3Bcd AF EGFE|
D2 DE FDFA|dFAF ABde|f2 ef dBAG|1 FGEF D2:|2 FGEF D3A||
|:defg afdf|afdf a2gf|edef gfed|(3Bcd ef g2 fe|
defg afdf|afdf a3g|f2 ef dBAG|1 FGEF D3A:|2 FGEF D2||

